en/_assets/wiki/svg/wysiwyg/section-all-left.svg

<svg xmlns="http://www.w3.org/2000/svg" xmlns:xlink="http://www.w3.org/1999/xlink" width="24" height="24" class="yc-icon" fill="currentColor" stroke="none" aria-hidden="true"><svg viewBox="0 0 24 24" fill="none" xmlns="http://www.w3.org/2000/svg"><path fill-rule="evenodd" clip-rule="evenodd" d="M18.5 8.5V15.5H17.5V8.5H18.5ZM12.5 8.5V15.5H11.5V8.5H12.5ZM6.5 8.5V15.5H5.5V8.5H6.5ZM19 7C19.5523 7 20 7.44772 20 8V16C20 16.5523 19.5523 17 19 17H17C16.4477 17 16 16.5523 16 16V8C16 7.44772 16.4477 7 17 7H19ZM13 7C13.5523 7 14 7.44772 14 8V16C14 16.5523 13.5523 17 13 17H11C10.4477 17 10 16.5523 10 16V8C10 7.44772 10.4477 7 11 7H13ZM8 8C8 7.44772 7.55229 7 7 7H5C4.44772 7 4 7.44772 4 8V16C4 16.5523 4.44772 17 5 17H7C7.55229 17 8 16.5523 8 16V8Z" fill="currentColor"></path></svg></svg>

<svg xmlns="http://www.w3.org/2000/svg" width="24" height="24" fill="currentColor" aria-hidden="true" class="yc-icon"><svg xmlns="http://www.w3.org/2000/svg" fill="none" viewBox="0 0 24 24"><path fill="currentColor" fill-rule="evenodd" d="M18.5 8.5v7h-1v-7h1Zm-6 0v7h-1v-7h1Zm-6 0v7h-1v-7h1ZM19 7a1 1 0 0 1 1 1v8a1 1 0 0 1-1 1h-2a1 1 0 0 1-1-1V8a1 1 0 0 1 1-1h2Zm-6 0a1 1 0 0 1 1 1v8a1 1 0 0 1-1 1h-2a1 1 0 0 1-1-1V8a1 1 0 0 1 1-1h2ZM8 8a1 1 0 0 0-1-1H5a1 1 0 0 0-1 1v8a1 1 0 0 0 1 1h2a1 1 0 0 0 1-1V8Z" clip-rule="evenodd"/></svg></svg>
